packages/web/public/tokens/silk.svg

<svg fill="none" height="40" viewBox="0 0 40 40" width="40" xmlns="http://www.w3.org/2000/svg" xmlns:xlink="http://www.w3.org/1999/xlink"><linearGradient id="a" gradientUnits="userSpaceOnUse" x1="6.17143" x2="31.619" y1="5.86667" y2="35.2762"><stop offset="0" stop-color="#02b8ff"/><stop offset=".555208" stop-color="#2436ff"/><stop offset="1" stop-color="#7026fe"/></linearGradient><path d="m20 40c11.0457 0 20-8.9543 20-20 0-11.04569-8.9543-20-20-20-11.04569 0-20 8.95431-20 20 0 11.0457 8.95431 20 20 20z" fill="url(#a)"/><path d="m3.09828 9.27036 13.63332 17.83104c1.714 1.9712 3.3203 2.4649 5.2666 1.6815 2.0799-1.2229 2.1563-3.6687.1145-5.6942-1.589-1.2609-2.6772-2.1062-4.885-3.7643-7.0985-5.3311-.1908-13.89149 6.3543-9.64955.8675.68085 1.2878 1.08445 1.8891 1.85355l12.8253 16.7325c-.3621.801-.7751 1.5739-1.2349 2.3146l-13.6131-17.7287c-.5449-.6499-.8162-.9045-1.2784-1.2038-4.5225-2.44582-7.3085 2.656-3.7592 5.5413.4583.3483.8859.6702 1.2897.9742 1.4794 1.1139 2.64 1.9878 3.8243 3.0385 3.6447 2.8089 3.0531 7.8534-.229 9.5923-2.5761 1.4713-6.0872.9553-8.3579-2.0828l-13.09879-17.124c.36997-.8007.79109-1.5728 1.25917-2.31214z" fill="#fff"/></svg>

<svg
  width="40"
  height="40"
  viewBox="0 0 40 40"
  fill="none"
  xmlns="http://www.w3.org/2000/svg"
>
  <path
    d="M20 40C31.0457 40 40 31.0457 40 20C40 8.95431 31.0457 0 20 0C8.95431 0 0 8.95431 0 20C0 31.0457 8.95431 40 20 40Z"
    fill="url(#paint0_linear_4184_2612)"
  />
  <path
    d="M3.09828 9.27036L16.7316 27.1014C18.4456 29.0726 20.0519 29.5663 21.9982 28.7829C24.0781 27.56 24.1545 25.1142 22.1127 23.0887C20.5237 21.8278 19.4355 20.9825 17.2277 19.3244C10.1292 13.9933 17.0369 5.43291 23.582 9.67485C24.4495 10.3557 24.8698 10.7593 25.4711 11.5284L38.2964 28.2609C37.9343 29.0619 37.5213 29.8348 37.0615 30.5755L23.4484 12.8468C22.9035 12.1969 22.6322 11.9423 22.17 11.643C17.6475 9.19718 14.8615 14.299 18.4108 17.1843C18.8691 17.5326 19.2967 17.8545 19.7005 18.1585C21.1799 19.2724 22.3405 20.1463 23.5248 21.197C27.1695 24.0059 26.5779 29.0504 23.2958 30.7893C20.7197 32.2606 17.2086 31.7446 14.9379 28.7065L1.83911 11.5825C2.20908 10.7818 2.6302 10.0097 3.09828 9.27036Z"
    fill="white"
  />
  <linearGradient
    id="paint0_linear_4184_2612"
    x1="6.17143"
    y1="5.86667"
    x2="31.619"
    y2="35.2762"
    gradientUnits="userSpaceOnUse"
  >
    <stop stop-color="#02B8FF" />
    <stop
      offset="0.555208"
      stop-color="#2436FF"
    />
    <stop
      offset="1"
      stop-color="#7026FE"
    />
  </linearGradient>
</svg>
